LUTs/OPEN - Palm Springs LUT/2. Presetpro - Palm Springs LUT/Presetpro - Palm Springs.cube
#Copyright Tim Martin Presetpro.com StockPresets.com
TITLE "Presetpro - Palm Springs"
#LUT size
LUT_3D_SIZE 8
#LUT data points
0.000000 0.082353 0.031373
0.000000 0.082353 0.031373
0.152941 0.082353 0.027451
0.439216 0.003922 0.000000
0.690196 0.003922 0.000000
0.831373 0.180392 0.000000
0.952941 0.384314 0.003922
1.000000 0.525490 0.003922
0.000000 0.086275 0.035294
0.000000 0.094118 0.031373
0.184314 0.101961 0.019608
0.470588 0.066667 0.000000
0.690196 0.113725 0.003922
0.835294 0.250980 0.000000
0.952941 0.415686 0.000000
0.996078 0.552941 0.003922
0.000000 0.137255 0.043137
0.000000 0.152941 0.039216
0.219608 0.215686 0.000000
0.517647 0.270588 0.000000
0.698039 0.298039 0.000000
0.827451 0.380392 0.003922
0.945098 0.494118 0.000000
1.000000 0.584314 0.003922
0.003922 0.317647 0.109804
0.003922 0.325490 0.125490
0.164706 0.403922 0.039216
0.486275 0.494118 0.000000
0.694118 0.521569 0.007843
0.827451 0.529412 0.000000
0.952941 0.576471 0.000000
0.992157 0.643137 0.000000
0.000000 0.525490 0.227451
0.000000 0.529412 0.239216
0.211765 0.552941 0.235294
0.423529 0.592157 0.172549
0.658824 0.623529 0.007843
0.847059 0.666667 0.000000
0.960784 0.690196 0.000000
1.000000 0.717647 0.145098
0.270588 0.631373 0.384314
0.301961 0.639216 0.392157
0.388235 0.647059 0.403922
0.494118 0.674510 0.388235
0.650980 0.709804 0.345098
0.831373 0.756863 0.282353
0.968627 0.807843 0.250980
0.996078 0.819608 0.313725
0.470588 0.752941 0.505882
0.490196 0.756863 0.513725
0.541176 0.760784 0.521569
0.619608 0.788235 0.509804
0.705882 0.819608 0.498039
0.819608 0.858824 0.470588
0.941176 0.894118 0.423529
1.000000 0.905882 0.411765
0.670588 0.925490 0.650980
0.682353 0.929412 0.654902
0.713725 0.929412 0.666667
0.756863 0.933333 0.678431
0.800000 0.945098 0.674510
0.862745 0.956863 0.662745
0.933333 0.952941 0.639216
0.996078 0.952941 0.600000
0.000000 0.082353 0.054902
0.003922 0.082353 0.047059
0.172549 0.062745 0.050980
0.466667 0.000000 0.078431
0.694118 0.000000 0.078431
0.831373 0.227451 0.062745
0.952941 0.407843 0.050980
1.000000 0.545098 0.141176
0.000000 0.090196 0.058824
0.000000 0.098039 0.074510
0.211765 0.101961 0.086275
0.486275 0.078431 0.082353
0.698039 0.149020 0.066667
0.831373 0.282353 0.058824
0.949020 0.435294 0.050980
1.000000 0.556863 0.156863
0.000000 0.168627 0.129412
0.011765 0.176471 0.121569
0.250980 0.231373 0.082353
0.529412 0.278431 0.039216
0.694118 0.317647 0.019608
0.823529 0.400000 0.023529
0.956863 0.505882 0.050980
1.000000 0.592157 0.172549
0.000000 0.356863 0.184314
0.000000 0.368627 0.196078
0.207843 0.423529 0.168627
0.490196 0.505882 0.035294
0.694118 0.521569 0.000000
0.823529 0.533333 0.011765
0.945098 0.588235 0.090196
1.000000 0.647059 0.211765
0.003922 0.545098 0.290196
0.094118 0.541176 0.298039
0.274510 0.556863 0.309804
0.443137 0.596078 0.270588
0.666667 0.635294 0.207843
0.843137 0.662745 0.184314
0.960784 0.686275 0.207843
0.996078 0.725490 0.266667
0.305882 0.639216 0.415686
0.337255 0.639216 0.419608
0.415686 0.647059 0.435294
0.509804 0.674510 0.415686
0.658824 0.709804 0.396078
0.835294 0.760784 0.349020
0.968627 0.803922 0.325490
1.000000 0.823529 0.372549
0.474510 0.752941 0.517647
0.490196 0.756863 0.517647
0.549020 0.764706 0.537255
0.611765 0.788235 0.533333
0.713725 0.823529 0.521569
0.819608 0.862745 0.494118
0.941176 0.894118 0.454902
1.000000 0.905882 0.450980
0.670588 0.925490 0.666667
0.682353 0.925490 0.662745
0.721569 0.921569 0.682353
0.756863 0.929412 0.682353
0.803922 0.941176 0.674510
0.862745 0.952941 0.670588
0.945098 0.956863 0.654902
1.000000 0.952941 0.615686
0.000000 0.078431 0.207843
0.000000 0.078431 0.215686
0.231373 0.086275 0.215686
0.521569 0.003922 0.270588
0.717647 0.047059 0.274510
0.815686 0.321569 0.325490
0.941176 0.466667 0.360784
0.996078 0.572549 0.400000
0.000000 0.098039 0.235294
0.003922 0.101961 0.250980
0.270588 0.133333 0.258824
0.533333 0.113725 0.294118
0.690196 0.243137 0.313725
0.815686 0.376471 0.333333
0.941176 0.486275 0.364706
0.996078 0.580392 0.396078
0.000000 0.176471 0.250980
0.000000 0.200000 0.266667
0.286275 0.274510 0.317647
0.537255 0.321569 0.313725
0.690196 0.388235 0.325490
0.815686 0.458824 0.345098
0.937255 0.537255 0.356863
1.000000 0.611765 0.396078
0.003922 0.403922 0.349020
0.160784 0.423529 0.356863
0.305882 0.454902 0.356863
0.513725 0.521569 0.329412
0.686275 0.529412 0.329412
0.815686 0.552941 0.345098
0.945098 0.607843 0.368627
1.000000 0.658824 0.411765
0.262745 0.560784 0.411765
0.286275 0.560784 0.415686
0.376471 0.572549 0.427451
0.478431 0.603922 0.419608
0.666667 0.643137 0.400000
0.839216 0.670588 0.400000
0.949020 0.690196 0.400000
1.000000 0.717647 0.415686
0.364706 0.650980 0.474510
0.384314 0.654902 0.474510
0.454902 0.662745 0.490196
0.533333 0.674510 0.494118
0.670588 0.713725 0.486275
0.827451 0.760784 0.454902
0.964706 0.803922 0.450980
1.000000 0.819608 0.466667
0.478431 0.764706 0.545098
0.498039 0.760784 0.549020
0.545098 0.768627 0.552941
0.627451 0.788235 0.568627
0.709804 0.823529 0.560784
0.819608 0.866667 0.545098
0.937255 0.898039 0.513725
1.000000 0.901961 0.509804
0.658824 0.929412 0.674510
0.682353 0.925490 0.670588
0.713725 0.925490 0.690196
0.768627 0.929412 0.701961
0.807843 0.941176 0.701961
0.870588 0.949020 0.701961
0.941176 0.952941 0.682353
1.000000 0.952941 0.654902
0.000000 0.074510 0.435294
0.003922 0.066667 0.450980
0.356863 0.000000 0.474510
0.564706 0.247059 0.478431
0.701961 0.321569 0.501961
0.847059 0.415686 0.513725
0.952941 0.494118 0.525490
1.000000 0.592157 0.564706
0.000000 0.098039 0.439216
0.000000 0.098039 0.458824
0.360784 0.101961 0.486275
0.564706 0.325490 0.494118
0.701961 0.392157 0.513725
0.835294 0.447059 0.525490
0.949020 0.521569 0.541176
1.000000 0.600000 0.552941
0.000000 0.192157 0.450980
0.000000 0.203922 0.458824
0.294118 0.258824 0.505882
0.552941 0.447059 0.513725
0.694118 0.494118 0.529412
0.815686 0.517647 0.529412
0.933333 0.568627 0.537255
1.000000 0.623529 0.549020
0.000000 0.392157 0.462745
0.000000 0.415686 0.470588
0.298039 0.466667 0.490196
0.533333 0.541176 0.521569
0.670588 0.556863 0.525490
0.807843 0.588235 0.529412
0.941176 0.627451 0.537255
1.000000 0.666667 0.545098
0.235294 0.556863 0.498039
0.313725 0.576471 0.505882
0.454902 0.588235 0.525490
0.545098 0.611765 0.541176
0.690196 0.654902 0.541176
0.827451 0.670588 0.533333
0.945098 0.690196 0.533333
0.996078 0.729412 0.537255
0.450980 0.662745 0.560784
0.482353 0.670588 0.576471
0.505882 0.674510 0.556863
0.572549 0.686275 0.568627
0.682353 0.721569 0.576471
0.839216 0.772549 0.560784
0.956863 0.811765 0.545098
0.992157 0.815686 0.552941
0.505882 0.768627 0.592157
0.525490 0.772549 0.600000
0.537255 0.780392 0.588235
0.623529 0.796078 0.603922
0.713725 0.823529 0.623529
0.815686 0.862745 0.603922
0.941176 0.898039 0.588235
1.000000 0.901961 0.580392
0.658824 0.933333 0.698039
0.670588 0.925490 0.690196
0.705882 0.933333 0.701961
0.764706 0.933333 0.713725
0.819608 0.937255 0.733333
0.870588 0.945098 0.725490
0.945098 0.949020 0.713725
0.996078 0.952941 0.701961
0.000000 0.070588 0.572549
0.000000 0.050980 0.580392
0.372549 0.003922 0.592157
0.627451 0.254902 0.615686
0.721569 0.498039 0.623529
0.827451 0.517647 0.639216
0.980392 0.580392 0.674510
1.000000 0.611765 0.674510
0.000000 0.101961 0.576471
0.003922 0.098039 0.592157
0.380392 0.109804 0.607843
0.623529 0.325490 0.615686
0.721569 0.525490 0.631373
0.831373 0.541176 0.639216
0.976471 0.596078 0.674510
0.996078 0.627451 0.682353
0.000000 0.168627 0.568627
0.007843 0.176471 0.584314
0.301961 0.270588 0.603922
0.588235 0.435294 0.611765
0.725490 0.576471 0.635294
0.835294 0.588235 0.654902
0.964706 0.619608 0.682353
1.000000 0.650980 0.674510
0.003922 0.352941 0.564706
0.000000 0.364706 0.564706
0.011765 0.423529 0.576471
0.521569 0.521569 0.615686
0.721569 0.623529 0.647059
0.862745 0.647059 0.678431
0.964706 0.647059 0.666667
1.000000 0.694118 0.678431
0.007843 0.541176 0.572549
0.164706 0.560784 0.576471
0.360784 0.576471 0.584314
0.529412 0.615686 0.603922
0.701961 0.666667 0.647059
0.843137 0.686275 0.658824
0.949020 0.705882 0.647059
1.000000 0.741176 0.666667
0.356863 0.643137 0.600000
0.392157 0.658824 0.607843
0.478431 0.666667 0.611765
0.600000 0.694118 0.631373
0.709804 0.725490 0.658824
0.839216 0.788235 0.662745
0.952941 0.803922 0.650980
1.000000 0.807843 0.650980
0.486275 0.760784 0.650980
0.505882 0.764706 0.654902
0.568627 0.776471 0.658824
0.643137 0.800000 0.666667
0.721569 0.823529 0.678431
0.815686 0.866667 0.686275
0.945098 0.901961 0.690196
1.000000 0.901961 0.682353
0.682353 0.925490 0.725490
0.686275 0.929412 0.729412
0.717647 0.929412 0.733333
0.749020 0.937255 0.733333
0.827451 0.937255 0.749020
0.886275 0.949020 0.764706
0.952941 0.952941 0.749020
1.000000 0.949020 0.741176
0.000000 0.047059 0.674510
0.176471 0.031373 0.686275
0.447059 0.050980 0.694118
0.662745 0.286275 0.717647
0.815686 0.505882 0.733333
0.898039 0.627451 0.749020
0.949020 0.643137 0.745098
1.000000 0.729412 0.772549
0.011765 0.098039 0.678431
0.145098 0.105882 0.686275
0.435294 0.145098 0.690196
0.654902 0.345098 0.713725
0.815686 0.525490 0.733333
0.898039 0.639216 0.749020
0.949020 0.658824 0.749020
1.000000 0.745098 0.776471
0.003922 0.160784 0.674510
0.000000 0.188235 0.682353
0.372549 0.282353 0.690196
0.627451 0.431373 0.709804
0.800000 0.560784 0.733333
0.894118 0.670588 0.745098
0.952941 0.690196 0.756863
1.000000 0.772549 0.788235
0.000000 0.321569 0.647059
0.000000 0.333333 0.658824
0.000000 0.368627 0.666667
0.533333 0.505882 0.705882
0.764706 0.603922 0.737255
0.890196 0.721569 0.760784
0.960784 0.745098 0.768627
1.000000 0.803922 0.776471
0.000000 0.509804 0.643137
0.000000 0.525490 0.643137
0.007843 0.541176 0.666667
0.329412 0.572549 0.662745
0.686275 0.639216 0.733333
0.882353 0.764706 0.764706
0.960784 0.811765 0.772549
1.000000 0.815686 0.776471
0.133333 0.639216 0.650980
0.211765 0.639216 0.658824
0.337255 0.654902 0.658824
0.490196 0.678431 0.678431
0.674510 0.721569 0.721569
0.854902 0.807843 0.752941
0.952941 0.823529 0.756863
1.000000 0.850980 0.760784
0.317647 0.741176 0.686275
0.349020 0.741176 0.690196
0.427451 0.756863 0.694118
0.552941 0.784314 0.713725
0.713725 0.823529 0.733333
0.835294 0.870588 0.749020
0.945098 0.909804 0.756863
1.000000 0.905882 0.756863
0.568627 0.933333 0.760784
0.596078 0.929412 0.764706
0.643137 0.929412 0.752941
0.729412 0.937255 0.764706
0.827451 0.937255 0.780392
0.898039 0.945098 0.796078
0.964706 0.949020 0.800000
1.000000 0.949020 0.796078
0.372549 0.054902 0.800000
0.454902 0.086275 0.800000
0.603922 0.200000 0.803922
0.756863 0.380392 0.811765
0.874510 0.521569 0.811765
0.956863 0.654902 0.819608
0.996078 0.776471 0.819608
0.996078 0.792157 0.811765
0.345098 0.141176 0.807843
0.423529 0.168627 0.803922
0.592157 0.250980 0.800000
0.737255 0.415686 0.815686
0.866667 0.541176 0.815686
0.964706 0.670588 0.823529
0.992157 0.784314 0.823529
1.000000 0.803922 0.815686
0.015686 0.211765 0.784314
0.290196 0.266667 0.800000
0.505882 0.349020 0.796078
0.698039 0.462745 0.803922
0.847059 0.564706 0.811765
0.949020 0.694118 0.827451
0.984314 0.807843 0.827451
1.000000 0.819608 0.819608
0.000000 0.325490 0.780392
0.003922 0.325490 0.788235
0.113725 0.364706 0.788235
0.596078 0.501961 0.796078
0.811765 0.596078 0.811765
0.933333 0.721569 0.823529
0.980392 0.843137 0.835294
1.000000 0.850980 0.831373
0.000000 0.521569 0.760784
0.000000 0.529412 0.764706
0.000000 0.525490 0.772549
0.000000 0.549020 0.780392
0.694118 0.619608 0.800000
0.905882 0.745098 0.815686
0.984314 0.878431 0.850980
0.996078 0.886275 0.843137
0.000000 0.662745 0.760784
0.000000 0.666667 0.764706
0.000000 0.662745 0.760784
0.007843 0.662745 0.768627
0.400000 0.674510 0.776471
0.819608 0.749020 0.811765
0.976471 0.898039 0.854902
1.000000 0.913725 0.862745
0.000000 0.752941 0.764706
0.000000 0.749020 0.760784
0.176471 0.764706 0.760784
0.372549 0.764706 0.756863
0.560784 0.792157 0.768627
0.784314 0.839216 0.788235
0.964706 0.913725 0.843137
0.992157 0.917647 0.854902
0.305882 0.929412 0.811765
0.341176 0.929412 0.819608
0.423529 0.941176 0.827451
0.549020 0.937255 0.823529
0.709804 0.941176 0.823529
0.862745 0.941176 0.835294
0.972549 0.949020 0.862745
1.000000 0.952941 0.866667
0.635294 0.419608 0.925490
0.666667 0.439216 0.921569
0.737255 0.486275 0.925490
0.819608 0.549020 0.913725
0.898039 0.635294 0.917647
0.968627 0.737255 0.917647
1.000000 0.850980 0.909804
0.996078 0.894118 0.898039
0.611765 0.431373 0.917647
0.643137 0.458824 0.917647
0.725490 0.498039 0.929412
0.807843 0.560784 0.917647
0.901961 0.639216 0.921569
0.964706 0.749020 0.909804
1.000000 0.854902 0.913725
0.996078 0.901961 0.901961
0.517647 0.458824 0.925490
0.572549 0.482353 0.929412
0.674510 0.513725 0.921569
0.780392 0.572549 0.917647
0.870588 0.654902 0.909804
0.964706 0.760784 0.917647
1.000000 0.862745 0.909804
0.992157 0.905882 0.913725
0.000000 0.400000 0.941176
0.078431 0.427451 0.929412
0.498039 0.517647 0.925490
0.705882 0.592157 0.921569
0.850980 0.670588 0.925490
0.945098 0.780392 0.925490
1.000000 0.870588 0.905882
1.000000 0.917647 0.905882
0.000000 0.596078 0.929412
0.007843 0.584314 0.929412
0.007843 0.564706 0.925490
0.313725 0.545098 0.937255
0.764706 0.666667 0.925490
0.909804 0.784314 0.929412
1.000000 0.886275 0.917647
1.000000 0.921569 0.917647
0.000000 0.729412 0.937255
0.011765 0.721569 0.929412
0.003922 0.717647 0.933333
0.000000 0.709804 0.933333
0.211765 0.662745 0.949020
0.839216 0.784314 0.921569
1.000000 0.898039 0.933333
0.992157 0.933333 0.921569
0.003922 0.823529 0.933333
0.000000 0.827451 0.941176
0.000000 0.827451 0.941176
0.011765 0.803922 0.929412
0.223529 0.811765 0.941176
0.525490 0.792157 0.945098
0.937255 0.898039 0.933333
1.000000 0.945098 0.933333
0.376471 0.929412 0.945098
0.396078 0.925490 0.937255
0.454902 0.929412 0.941176
0.541176 0.929412 0.941176
0.658824 0.937255 0.945098
0.784314 0.933333 0.937255
0.913725 0.949020 0.937255
1.000000 0.949020 0.945098
