LUTs/OPEN - Palm Springs LUT/2. Presetpro - Palm Springs LUT/Presetpro - Palm Springs.cube
#Copyright Tim Martin Presetpro.com StockPresets.com
TITLE "Presetpro - Palm Springs"
#LUT size
LUT_3D_SIZE 4
#LUT data points
0.000000 0.082353 0.031373
0.235294 0.070588 0.023529
0.788235 0.098039 0.003922
1.000000 0.525490 0.003922
0.003922 0.180392 0.066667
0.321569 0.309804 0.000000
0.784314 0.396078 0.000000
0.996078 0.603922 0.000000
0.156863 0.607843 0.333333
0.360784 0.623529 0.345098
0.784314 0.713725 0.219608
0.996078 0.792157 0.254902
0.670588 0.925490 0.650980
0.737255 0.925490 0.682353
0.839216 0.949020 0.658824
0.996078 0.952941 0.600000
0.000000 0.078431 0.286275
0.360784 0.094118 0.325490
0.800000 0.266667 0.376471
1.000000 0.576471 0.458824
0.003922 0.239216 0.333333
0.384314 0.380392 0.400000
0.756863 0.490196 0.407843
1.000000 0.627451 0.462745
0.380392 0.619608 0.486275
0.478431 0.639216 0.505882
0.784314 0.721569 0.482353
1.000000 0.784314 0.490196
0.658824 0.929412 0.674510
0.733333 0.925490 0.698039
0.847059 0.949020 0.701961
1.000000 0.956863 0.674510
0.000000 0.054902 0.643137
0.494118 0.078431 0.666667
0.843137 0.588235 0.713725
0.996078 0.698039 0.749020
0.000000 0.207843 0.631373
0.415686 0.368627 0.658824
0.839216 0.647059 0.721569
0.996078 0.737255 0.752941
0.137255 0.611765 0.615686
0.411765 0.639216 0.650980
0.811765 0.760784 0.729412
1.000000 0.811765 0.733333
0.619608 0.929412 0.752941
0.705882 0.929412 0.752941
0.874510 0.941176 0.776471
1.000000 0.949020 0.776471
0.635294 0.419608 0.925490
0.764706 0.509804 0.921569
0.952941 0.701961 0.909804
0.996078 0.894118 0.898039
0.439216 0.447059 0.929412
0.678431 0.545098 0.917647
0.929412 0.725490 0.913725
1.000000 0.901961 0.898039
0.003922 0.694118 0.925490
0.000000 0.670588 0.929412
0.815686 0.741176 0.929412
1.000000 0.933333 0.917647
0.376471 0.929412 0.945098
0.486275 0.929412 0.945098
0.737255 0.937255 0.941176
1.000000 0.949020 0.945098
