LUTs/OPEN - Palm Springs LUT/2. Presetpro - Palm Springs LUT/Presetpro - Palm Springs.cube
#Copyright Tim Martin Presetpro.com StockPresets.com
TITLE "Presetpro - Palm Springs"
#LUT size
LUT_3D_SIZE 64
#LUT data points
0.000000 0.082353 0.031373
0.000000 0.078431 0.031373
0.000000 0.078431 0.031373
0.000000 0.078431 0.031373
0.000000 0.078431 0.031373
0.000000 0.078431 0.031373
0.000000 0.078431 0.031373
0.000000 0.078431 0.031373
0.000000 0.078431 0.031373
0.000000 0.082353 0.031373
0.000000 0.082353 0.031373
0.000000 0.082353 0.023529
0.000000 0.082353 0.023529
0.011765 0.082353 0.027451
0.039216 0.090196 0.023529
0.058824 0.094118 0.027451
0.086275 0.090196 0.019608
0.117647 0.090196 0.027451
0.152941 0.082353 0.027451
0.180392 0.074510 0.031373
0.200000 0.074510 0.023529
0.235294 0.070588 0.023529
0.274510 0.062745 0.015686
0.305882 0.054902 0.015686
0.349020 0.039216 0.011765
0.376471 0.027451 0.011765
0.403922 0.007843 0.000000
0.439216 0.003922 0.000000
0.486275 0.000000 0.000000
0.513725 0.000000 0.000000
0.541176 0.003922 0.000000
0.572549 0.000000 0.003922
0.592157 0.000000 0.000000
0.619608 0.003922 0.000000
0.643137 0.000000 0.000000
0.666667 0.003922 0.000000
0.690196 0.003922 0.000000
0.705882 0.000000 0.003922
0.721569 0.003922 0.000000
0.737255 0.007843 0.000000
0.760784 0.047059 0.000000
0.772549 0.074510 0.003922
0.788235 0.098039 0.003922
0.800000 0.125490 0.000000
0.815686 0.152941 0.000000
0.831373 0.180392 0.000000
0.847059 0.200000 0.000000
0.866667 0.219608 0.003922
0.870588 0.247059 0.000000
0.886275 0.266667 0.000000
0.898039 0.290196 0.000000
0.913725 0.317647 0.000000
0.925490 0.337255 0.000000
0.945098 0.360784 0.000000
0.952941 0.384314 0.003922
0.968627 0.400000 0.003922
0.980392 0.423529 0.003922
0.992157 0.435294 0.003922
1.000000 0.458824 0.000000
1.000000 0.474510 0.000000
0.996078 0.490196 0.000000
1.000000 0.505882 0.000000
1.000000 0.517647 0.000000
1.000000 0.525490 0.003922
0.000000 0.082353 0.023529
0.000000 0.078431 0.031373
0.000000 0.078431 0.031373
0.000000 0.078431 0.031373
0.000000 0.078431 0.031373
0.000000 0.078431 0.031373
0.003922 0.082353 0.035294
0.003922 0.082353 0.035294
0.007843 0.078431 0.023529
0.000000 0.082353 0.023529
0.000000 0.086275 0.035294
0.003922 0.082353 0.035294
0.011765 0.082353 0.027451
0.015686 0.086275 0.023529
0.039216 0.086275 0.031373
0.062745 0.086275 0.031373
0.094118 0.086275 0.027451
0.117647 0.090196 0.027451
0.149020 0.086275 0.027451
0.172549 0.082353 0.023529
0.203922 0.078431 0.019608
0.243137 0.070588 0.019608
0.286275 0.066667 0.015686
0.309804 0.058824 0.019608
0.349020 0.043137 0.003922
0.376471 0.027451 0.003922
0.407843 0.011765 0.000000
0.447059 0.000000 0.000000
0.478431 0.003922 0.007843
0.513725 0.003922 0.003922
0.549020 0.000000 0.003922
0.572549 0.003922 0.000000
0.603922 0.000000 0.007843
0.619608 0.003922 0.007843
0.650980 0.003922 0.000000
0.670588 0.000000 0.000000
0.690196 0.003922 0.000000
0.705882 0.003922 0.000000
0.721569 0.003922 0.000000
0.745098 0.019608 0.003922
0.752941 0.058824 0.000000
0.776471 0.086275 0.003922
0.788235 0.113725 0.003922
0.800000 0.133333 0.000000
0.815686 0.160784 0.000000
0.827451 0.184314 0.003922
0.835294 0.203922 0.000000
0.854902 0.223529 0.003922
0.874510 0.250980 0.003922
0.890196 0.270588 0.000000
0.898039 0.290196 0.000000
0.913725 0.317647 0.000000
0.929412 0.333333 0.000000
0.941176 0.356863 0.000000
0.952941 0.384314 0.000000
0.964706 0.403922 0.000000
0.972549 0.423529 0.003922
0.988235 0.443137 0.000000
0.996078 0.462745 0.000000
1.000000 0.474510 0.000000
1.000000 0.486275 0.000000
1.000000 0.498039 0.000000
1.000000 0.513725 0.000000
1.000000 0.533333 0.000000
0.000000 0.078431 0.031373
0.000000 0.078431 0.031373
0.000000 0.078431 0.031373
0.000000 0.078431 0.031373
0.000000 0.078431 0.031373
0.000000 0.078431 0.031373
0.000000 0.078431 0.031373
0.003922 0.082353 0.035294
0.003922 0.086275 0.027451
0.000000 0.082353 0.023529
0.000000 0.086275 0.027451
0.000000 0.086275 0.027451
0.003922 0.086275 0.027451
0.015686 0.086275 0.023529
0.047059 0.090196 0.027451
0.062745 0.090196 0.027451
0.090196 0.086275 0.015686
0.117647 0.090196 0.027451
0.149020 0.086275 0.027451
0.172549 0.082353 0.019608
0.207843 0.078431 0.019608
0.243137 0.074510 0.011765
0.278431 0.070588 0.015686
0.313725 0.062745 0.023529
0.349020 0.047059 0.007843
0.380392 0.031373 0.007843
0.411765 0.015686 0.000000
0.443137 0.007843 0.003922
0.486275 0.000000 0.007843
0.513725 0.000000 0.000000
0.541176 0.003922 0.003922
0.572549 0.000000 0.003922
0.592157 0.000000 0.000000
0.615686 0.000000 0.000000
0.647059 0.003922 0.000000
0.670588 0.007843 0.003922
0.690196 0.003922 0.000000
0.698039 0.003922 0.000000
0.721569 0.015686 0.000000
0.749020 0.031373 0.007843
0.756863 0.074510 0.000000
0.772549 0.094118 0.000000
0.788235 0.121569 0.000000
0.803922 0.145098 0.003922
0.823529 0.168627 0.003922
0.827451 0.184314 0.003922
0.843137 0.211765 0.000000
0.854902 0.223529 0.003922
0.874510 0.250980 0.000000
0.886275 0.274510 0.003922
0.898039 0.298039 0.003922
0.913725 0.321569 0.003922
0.929412 0.341176 0.000000
0.941176 0.368627 0.000000
0.952941 0.392157 0.000000
0.964706 0.403922 0.000000
0.984314 0.427451 0.003922
0.988235 0.443137 0.000000
1.000000 0.458824 0.000000
1.000000 0.474510 0.000000
0.996078 0.490196 0.000000
0.992157 0.501961 0.000000
1.000000 0.521569 0.000000
1.000000 0.533333 0.000000
0.000000 0.078431 0.031373
0.000000 0.078431 0.031373
0.000000 0.078431 0.031373
0.000000 0.078431 0.031373
0.000000 0.078431 0.031373
0.000000 0.078431 0.031373
0.000000 0.082353 0.031373
0.000000 0.082353 0.031373
0.000000 0.086275 0.035294
0.000000 0.078431 0.031373
0.000000 0.086275 0.035294
0.000000 0.086275 0.035294
0.003922 0.086275 0.027451
0.023529 0.090196 0.027451
0.043137 0.086275 0.023529
0.070588 0.086275 0.027451
0.101961 0.090196 0.015686
0.125490 0.090196 0.023529
0.156863 0.090196 0.023529
0.176471 0.086275 0.023529
0.211765 0.082353 0.023529
0.247059 0.074510 0.023529
0.278431 0.070588 0.015686
0.309804 0.058824 0.011765
0.352941 0.047059 0.007843
0.380392 0.039216 0.003922
0.415686 0.019608 0.003922
0.450980 0.003922 0.000000
0.482353 0.000000 0.003922
0.517647 0.003922 0.003922
0.549020 0.000000 0.000000
0.568627 0.000000 0.000000
0.600000 0.000000 0.000000
0.619608 0.003922 0.000000
0.647059 0.007843 0.000000
0.666667 0.003922 0.000000
0.686275 0.000000 0.003922
0.709804 0.007843 0.000000
0.725490 0.027451 0.000000
0.737255 0.050980 0.000000
0.756863 0.074510 0.000000
0.772549 0.101961 0.000000
0.792157 0.125490 0.003922
0.803922 0.145098 0.000000
0.815686 0.172549 0.000000
0.827451 0.192157 0.000000
0.843137 0.211765 0.000000
0.854902 0.239216 0.007843
0.870588 0.258824 0.000000
0.886275 0.278431 0.000000
0.898039 0.298039 0.000000
0.913725 0.325490 0.000000
0.933333 0.345098 0.003922
0.937255 0.364706 0.000000
0.952941 0.392157 0.000000
0.960784 0.411765 0.000000
0.972549 0.427451 0.000000
1.000000 0.447059 0.000000
1.000000 0.458824 0.000000
0.996078 0.482353 0.000000
0.992157 0.494118 0.003922
0.996078 0.505882 0.003922
1.000000 0.521569 0.000000
0.996078 0.533333 0.007843
0.000000 0.078431 0.031373
0.000000 0.078431 0.031373
0.000000 0.078431 0.031373
0.000000 0.086275 0.035294
0.000000 0.082353 0.031373
0.000000 0.086275 0.035294
0.000000 0.086275 0.035294
0.000000 0.086275 0.035294
0.000000 0.082353 0.023529
0.000000 0.082353 0.031373
0.000000 0.086275 0.035294
0.003922 0.082353 0.035294
0.003922 0.086275 0.027451
0.023529 0.090196 0.027451
0.047059 0.090196 0.023529
0.074510 0.090196 0.023529
0.098039 0.094118 0.023529
0.121569 0.094118 0.023529
0.156863 0.090196 0.023529
0.184314 0.086275 0.015686
0.211765 0.082353 0.015686
0.243137 0.074510 0.011765
0.278431 0.070588 0.015686
0.309804 0.066667 0.015686
0.352941 0.047059 0.000000
0.384314 0.043137 0.007843
0.419608 0.027451 0.003922
0.454902 0.011765 0.000000
0.486275 0.000000 0.000000
0.517647 0.003922 0.003922
0.549020 0.000000 0.000000
0.572549 0.003922 0.000000
0.603922 0.000000 0.007843
0.627451 0.000000 0.007843
0.647059 0.000000 0.003922
0.670588 0.000000 0.003922
0.690196 0.003922 0.000000
0.701961 0.015686 0.000000
0.725490 0.043137 0.000000
0.745098 0.066667 0.003922
0.752941 0.098039 0.000000
0.768627 0.113725 0.007843
0.788235 0.137255 0.003922
0.800000 0.160784 0.000000
0.815686 0.180392 0.000000
0.831373 0.200000 0.000000
0.839216 0.219608 0.000000
0.854902 0.239216 0.000000
0.874510 0.262745 0.000000
0.886275 0.282353 0.000000
0.898039 0.305882 0.003922
0.909804 0.329412 0.000000
0.925490 0.349020 0.000000
0.941176 0.368627 0.000000
0.952941 0.392157 0.000000
0.960784 0.411765 0.000000
0.976471 0.431373 0.000000
0.988235 0.443137 0.000000
1.000000 0.462745 0.003922
1.000000 0.478431 0.000000
1.000000 0.494118 0.000000
0.996078 0.505882 0.003922
1.000000 0.521569 0.000000
1.000000 0.533333 0.000000
0.000000 0.078431 0.031373
0.000000 0.078431 0.031373
0.000000 0.078431 0.031373
0.000000 0.078431 0.031373
0.000000 0.078431 0.031373
0.000000 0.078431 0.031373
0.003922 0.082353 0.035294
0.003922 0.082353 0.035294
0.000000 0.086275 0.035294
0.000000 0.086275 0.027451
0.000000 0.090196 0.019608
0.003922 0.086275 0.027451
0.007843 0.090196 0.031373
0.023529 0.090196 0.027451
0.054902 0.090196 0.023529
0.078431 0.090196 0.023529
0.101961 0.098039 0.027451
0.129412 0.098039 0.019608
0.156863 0.090196 0.011765
0.188235 0.082353 0.007843
0.223529 0.082353 0.019608
0.258824 0.078431 0.019608
0.294118 0.074510 0.015686
0.317647 0.070588 0.003922
0.352941 0.054902 0.003922
0.380392 0.050980 0.007843
0.419608 0.035294 0.000000
0.450980 0.015686 0.000000
0.478431 0.003922 0.000000
0.517647 0.003922 0.000000
0.549020 0.000000 0.000000
0.576471 0.000000 0.000000
0.607843 0.000000 0.000000
0.627451 0.000000 0.000000
0.650980 0.003922 0.000000
0.666667 0.003922 0.000000
0.686275 0.023529 0.003922
0.705882 0.043137 0.000000
0.725490 0.066667 0.000000
0.741176 0.086275 0.000000
0.752941 0.105882 0.000000
0.772549 0.129412 0.000000
0.784314 0.141176 0.000000
0.800000 0.160784 0.000000
0.823529 0.188235 0.003922
0.831373 0.211765 0.003922
0.843137 0.227451 0.000000
0.858824 0.250980 0.007843
0.878431 0.274510 0.000000
0.890196 0.290196 0.000000
0.901961 0.309804 0.000000
0.921569 0.333333 0.003922
0.925490 0.356863 0.000000
0.941176 0.376471 0.000000
0.956863 0.396078 0.000000
0.972549 0.415686 0.000000
0.976471 0.439216 0.000000
0.992157 0.450980 0.000000
1.000000 0.466667 0.000000
1.000000 0.486275 0.000000
0.996078 0.501961 0.000000
0.996078 0.509804 0.000000
0.996078 0.525490 0.003922
0.996078 0.533333 0.000000
0.000000 0.082353 0.031373
0.000000 0.082353 0.031373
0.000000 0.082353 0.031373
0.000000 0.082353 0.031373
0.000000 0.082353 0.031373
0.000000 0.082353 0.031373
0.000000 0.086275 0.035294
0.000000 0.082353 0.031373
0.000000 0.090196 0.027451
0.000000 0.090196 0.019608
0.007843 0.090196 0.023529
0.003922 0.086275 0.019608
0.011765 0.094118 0.027451
0.039216 0.094118 0.035294
0.058824 0.094118 0.027451
0.086275 0.098039 0.031373
0.105882 0.094118 0.019608
0.133333 0.086275 0.023529
0.164706 0.090196 0.023529
0.196078 0.090196 0.023529
0.227451 0.090196 0.015686
0.262745 0.082353 0.019608
0.286275 0.078431 0.015686
0.321569 0.074510 0.015686
0.356863 0.058824 0.000000
0.388235 0.050980 0.000000
0.423529 0.039216 0.000000
0.458824 0.027451 0.000000
0.490196 0.015686 0.003922
0.521569 0.007843 0.007843
0.556863 0.000000 0.007843
0.584314 0.000000 0.003922
0.607843 0.000000 0.000000
0.627451 0.000000 0.000000
0.654902 0.015686 0.003922
0.670588 0.027451 0.000000
0.686275 0.043137 0.000000
0.701961 0.062745 0.003922
0.721569 0.082353 0.000000
0.741176 0.101961 0.000000
0.752941 0.121569 0.007843
0.772549 0.141176 0.000000
0.788235 0.160784 0.000000
0.803922 0.176471 0.000000
0.815686 0.200000 0.000000
0.827451 0.219608 0.000000
0.847059 0.235294 0.003922
0.858824 0.250980 0.000000
0.866667 0.278431 0.000000
0.882353 0.298039 0.000000
0.898039 0.317647 0.000000
0.913725 0.337255 0.000000
0.929412 0.364706 0.000000
0.937255 0.384314 0.000000
0.949020 0.400000 0.000000
0.964706 0.415686 0.003922
0.976471 0.439216 0.000000
0.988235 0.450980 0.000000
1.000000 0.466667 0.000000
1.000000 0.486275 0.000000
1.000000 0.505882 0.003922
0.996078 0.513725 0.000000
0.996078 0.525490 0.003922
0.996078 0.533333 0.000000
0.000000 0.078431 0.031373
0.000000 0.078431 0.031373
0.000000 0.078431 0.031373
0.000000 0.082353 0.031373
0.000000 0.082353 0.031373
0.000000 0.086275 0.027451
0.003922 0.086275 0.027451
0.003922 0.086275 0.027451
0.000000 0.090196 0.035294
0.000000 0.086275 0.027451
0.003922 0.094118 0.023529
0.003922 0.094118 0.023529
0.015686 0.098039 0.031373
0.039216 0.094118 0.027451
0.058824 0.094118 0.019608
0.082353 0.094118 0.019608
0.105882 0.101961 0.023529
0.145098 0.101961 0.027451
0.176471 0.094118 0.019608
0.200000 0.086275 0.015686
0.231373 0.086275 0.011765
0.266667 0.090196 0.015686
0.298039 0.082353 0.011765
0.329412 0.070588 0.007843
0.364706 0.062745 0.000000
0.396078 0.058824 0.000000
0.431373 0.047059 0.003922
0.462745 0.039216 0.000000
0.494118 0.027451 0.003922
0.521569 0.023529 0.000000
0.549020 0.015686 0.000000
0.576471 0.015686 0.000000
0.607843 0.019608 0.000000
0.627451 0.027451 0.003922
0.650980 0.043137 0.000000
0.670588 0.054902 0.000000
0.686275 0.074510 0.000000
0.705882 0.086275 0.000000
0.721569 0.105882 0.000000
0.741176 0.117647 0.000000
0.760784 0.133333 0.000000
0.780392 0.156863 0.003922
0.788235 0.172549 0.003922
0.800000 0.188235 0.000000
0.819608 0.211765 0.000000
0.831373 0.227451 0.000000
0.847059 0.243137 0.000000
0.862745 0.262745 0.000000
0.874510 0.290196 0.000000
0.886275 0.301961 0.003922
0.898039 0.325490 0.000000
0.909804 0.349020 0.003922
0.921569 0.364706 0.000000
0.937255 0.384314 0.000000
0.952941 0.411765 0.000000
0.964706 0.423529 0.000000
0.976471 0.443137 0.003922
0.992157 0.454902 0.000000
1.000000 0.474510 0.000000
1.000000 0.494118 0.003922
0.996078 0.501961 0.000000
0.996078 0.513725 0.000000
0.996078 0.525490 0.003922
1.000000 0.537255 0.003922
0.000000 0.086275 0.035294
0.000000 0.086275 0.035294
0.000000 0.086275 0.035294
0.000000 0.086275 0.027451
0.000000 0.082353 0.023529
0.000000 0.086275 0.027451
0.000000 0.086275 0.027451
0.000000 0.086275 0.027451
0.007843 0.090196 0.031373
0.000000 0.094118 0.031373
0.000000 0.098039 0.023529
0.007843 0.098039 0.027451
0.023529 0.094118 0.031373
0.047059 0.098039 0.031373
0.070588 0.098039 0.027451
0.094118 0.098039 0.027451
0.121569 0.101961 0.019608
0.145098 0.094118 0.019608
0.180392 0.090196 0.019608
0.211765 0.090196 0.011765
0.235294 0.090196 0.015686
0.270588 0.094118 0.019608
0.301961 0.086275 0.007843
0.325490 0.078431 0.007843
0.368627 0.074510 0.000000
0.400000 0.066667 0.000000
0.435294 0.058824 0.000000
0.470588 0.054902 0.000000
0.501961 0.047059 0.000000
0.521569 0.043137 0.000000
0.549020 0.043137 0.000000
0.576471 0.047059 0.003922
0.611765 0.047059 0.003922
0.635294 0.058824 0.000000
0.654902 0.062745 0.000000
0.674510 0.078431 0.003922
0.690196 0.094118 0.003922
0.705882 0.105882 0.003922
0.729412 0.121569 0.003922
0.741176 0.137255 0.003922
0.749020 0.160784 0.000000
0.768627 0.168627 0.003922
0.784314 0.188235 0.000000
0.800000 0.207843 0.000000
0.815686 0.219608 0.000000
0.827451 0.239216 0.000000
0.839216 0.254902 0.000000
0.854902 0.270588 0.003922
0.870588 0.290196 0.000000
0.886275 0.309804 0.003922
0.894118 0.333333 0.000000
0.913725 0.356863 0.003922
0.925490 0.376471 0.000000
0.941176 0.396078 0.007843
0.949020 0.415686 0.000000
0.964706 0.431373 0.000000
0.980392 0.450980 0.000000
0.992157 0.462745 0.000000
1.000000 0.478431 0.000000
1.000000 0.494118 0.000000
0.996078 0.505882 0.003922
1.000000 0.517647 0.003922
0.996078 0.533333 0.000000
0.992157 0.541176 0.003922
0.000000 0.086275 0.035294
0.000000 0.086275 0.035294
0.000000 0.086275 0.035294
0.000000 0.086275 0.035294
0.000000 0.086275 0.027451
0.000000 0.086275 0.027451
0.000000 0.086275 0.027451
0.003922 0.090196 0.031373
0.000000 0.094118 0.031373
0.000000 0.094118 0.031373
0.003922 0.101961 0.027451
0.003922 0.101961 0.027451
0.027451 0.101961 0.023529
0.050980 0.101961 0.023529
0.074510 0.105882 0.015686
0.094118 0.109804 0.015686
0.125490 0.105882 0.019608
0.152941 0.101961 0.027451
0.184314 0.101961 0.019608
0.215686 0.094118 0.015686
0.239216 0.098039 0.011765
0.274510 0.094118 0.003922
0.305882 0.094118 0.000000
0.333333 0.090196 0.000000
0.368627 0.086275 0.000000
0.400000 0.082353 0.000000
0.439216 0.074510 0.003922
0.470588 0.066667 0.000000
0.501961 0.066667 0.000000
0.529412 0.062745 0.000000
0.560784 0.062745 0.000000
0.588235 0.066667 0.000000
0.611765 0.078431 0.000000
0.635294 0.086275 0.003922
0.650980 0.090196 0.000000
0.674510 0.101961 0.003922
0.690196 0.113725 0.003922
0.709804 0.125490 0.000000
0.725490 0.137255 0.000000
0.741176 0.156863 0.000000
0.756863 0.168627 0.000000
0.772549 0.188235 0.000000
0.784314 0.203922 0.000000
0.807843 0.219608 0.000000
0.819608 0.231373 0.000000
0.835294 0.250980 0.000000
0.847059 0.262745 0.000000
0.862745 0.282353 0.007843
0.870588 0.305882 0.000000
0.882353 0.325490 0.000000
0.898039 0.345098 0.000000
0.913725 0.364706 0.000000
0.929412 0.380392 0.000000
0.941176 0.396078 0.000000
0.952941 0.415686 0.000000
0.968627 0.435294 0.003922
0.984314 0.454902 0.003922
0.996078 0.466667 0.003922
1.000000 0.486275 0.007843
0.992157 0.494118 0.003922
1.000000 0.509804 0.007843
1.000000 0.525490 0.003922
1.000000 0.541176 0.000000
0.996078 0.552941 0.003922
0.000000 0.090196 0.027451
0.000000 0.090196 0.027451
0.000000 0.090196 0.027451
0.000000 0.090196 0.027451
0.000000 0.090196 0.027451
0.000000 0.090196 0.027451
0.000000 0.090196 0.027451
0.000000 0.094118 0.031373
0.000000 0.094118 0.031373
0.000000 0.098039 0.023529
0.000000 0.105882 0.019608
0.015686 0.105882 0.027451
0.035294 0.101961 0.027451
0.062745 0.109804 0.023529
0.090196 0.109804 0.023529
0.105882 0.113725 0.023529
0.141176 0.109804 0.019608
0.168627 0.109804 0.027451
0.192157 0.105882 0.015686
0.223529 0.101961 0.019608
0.254902 0.105882 0.015686
0.282353 0.101961 0.007843
0.309804 0.098039 0.003922
0.341176 0.098039 0.000000
0.384314 0.094118 0.000000
0.411765 0.090196 0.003922
0.450980 0.090196 0.000000
0.482353 0.090196 0.000000
0.513725 0.078431 0.003922
0.537255 0.082353 0.000000
0.560784 0.082353 0.000000
0.588235 0.090196 0.000000
0.607843 0.094118 0.000000
0.635294 0.105882 0.000000
0.658824 0.113725 0.003922
0.678431 0.121569 0.003922
0.698039 0.133333 0.000000
0.709804 0.145098 0.000000
0.721569 0.160784 0.000000
0.741176 0.176471 0.003922
0.760784 0.188235 0.003922
0.772549 0.200000 0.000000
0.784314 0.215686 0.000000
0.803922 0.231373 0.000000
0.815686 0.247059 0.000000
0.831373 0.258824 0.000000
0.843137 0.282353 0.000000
0.858824 0.290196 0.000000
0.866667 0.313725 0.000000
0.882353 0.333333 0.000000
0.898039 0.352941 0.000000
0.913725 0.368627 0.003922
0.929412 0.388235 0.003922
0.945098 0.407843 0.000000
0.956863 0.423529 0.000000
0.968627 0.435294 0.003922
0.972549 0.454902 0.000000
0.988235 0.474510 0.000000
0.996078 0.490196 0.000000
0.996078 0.501961 0.000000
1.000000 0.513725 0.000000
0.996078 0.525490 0.003922
1.000000 0.537255 0.003922
0.996078 0.549020 0.000000
0.000000 0.094118 0.031373
0.000000 0.094118 0.031373
0.000000 0.094118 0.031373
0.003922 0.090196 0.031373
0.003922 0.090196 0.031373
0.000000 0.094118 0.031373
0.003922 0.098039 0.035294
0.003922 0.098039 0.035294
0.000000 0.094118 0.031373
0.000000 0.101961 0.027451
0.000000 0.109804 0.023529
0.000000 0.109804 0.019608
0.023529 0.109804 0.019608
0.066667 0.113725 0.019608
0.094118 0.113725 0.019608
0.117647 0.117647 0.015686
0.141176 0.109804 0.019608
0.172549 0.117647 0.015686
0.203922 0.121569 0.015686
0.219608 0.113725 0.000000
0.254902 0.109804 0.003922
0.290196 0.109804 0.007843
0.317647 0.105882 0.000000
0.352941 0.101961 0.003922
0.384314 0.105882 0.003922
0.415686 0.101961 0.003922
0.450980 0.098039 0.000000
0.478431 0.098039 0.000000
0.509804 0.101961 0.003922
0.533333 0.101961 0.000000
0.560784 0.101961 0.000000
0.588235 0.113725 0.007843
0.611765 0.113725 0.000000
0.635294 0.121569 0.003922
0.658824 0.133333 0.003922
0.686275 0.145098 0.003922
0.698039 0.152941 0.007843
0.709804 0.160784 0.000000
0.721569 0.172549 0.000000
0.737255 0.192157 0.000000
0.756863 0.203922 0.003922
0.768627 0.215686 0.007843
0.784314 0.227451 0.000000
0.796078 0.243137 0.000000
0.811765 0.262745 0.000000
0.827451 0.278431 0.000000
0.847059 0.294118 0.000000
0.862745 0.309804 0.000000
0.866667 0.325490 0.000000
0.878431 0.345098 0.007843
0.894118 0.364706 0.007843
0.909804 0.376471 0.000000
0.925490 0.396078 0.003922
0.937255 0.411765 0.000000
0.952941 0.431373 0.000000
0.972549 0.450980 0.000000
0.976471 0.466667 0.000000
0.996078 0.482353 0.003922
1.000000 0.494118 0.000000
1.000000 0.505882 0.000000
1.000000 0.521569 0.000000
1.000000 0.533333 0.000000
1.000000 0.545098 0.000000
1.000000 0.552941 0.000000
0.000000 0.098039 0.023529
0.000000 0.098039 0.023529
0.000000 0.098039 0.023529
0.003922 0.101961 0.027451
0.007843 0.098039 0.027451
0.003922 0.094118 0.023529
0.007843 0.098039 0.027451
0.007843 0.098039 0.027451
0.003922 0.101961 0.019608
0.000000 0.105882 0.019608
0.000000 0.113725 0.019608
0.003922 0.113725 0.023529
0.027451 0.113725 0.023529
0.066667 0.121569 0.023529
0.101961 0.125490 0.023529
0.129412 0.129412 0.019608
0.164706 0.117647 0.015686
0.184314 0.125490 0.011765
0.215686 0.121569 0.011765
0.247059 0.125490 0.011765
0.266667 0.125490 0.000000
0.301961 0.125490 0.003922
0.333333 0.117647 0.000000
0.364706 0.113725 0.003922
0.388235 0.117647 0.000000
0.419608 0.117647 0.000000
0.450980 0.109804 0.000000
0.486275 0.113725 0.003922
0.513725 0.117647 0.000000
0.537255 0.125490 0.003922
0.564706 0.133333 0.003922
0.588235 0.133333 0.003922
0.611765 0.145098 0.000000
0.631373 0.149020 0.000000
0.654902 0.156863 0.000000
0.678431 0.168627 0.003922
0.698039 0.172549 0.000000
0.709804 0.184314 0.000000
0.729412 0.196078 0.000000
0.741176 0.211765 0.003922
0.756863 0.215686 0.000000
0.768627 0.231373 0.000000
0.784314 0.247059 0.000000
0.803922 0.258824 0.000000
0.811765 0.270588 0.000000
0.827451 0.286275 0.000000
0.843137 0.305882 0.000000
0.858824 0.325490 0.003922
0.858824 0.337255 0.000000
0.874510 0.352941 0.003922
0.890196 0.372549 0.007843
0.905882 0.392157 0.000000
0.925490 0.403922 0.000000
0.941176 0.423529 0.000000
0.952941 0.435294 0.000000
0.964706 0.450980 0.000000
0.972549 0.474510 0.000000
0.992157 0.482353 0.003922
0.996078 0.501961 0.000000
1.000000 0.513725 0.000000
0.992157 0.521569 0.000000
0.996078 0.533333 0.000000
1.000000 0.545098 0.000000
1.000000 0.552941 0.000000
0.003922 0.101961 0.027451
0.003922 0.101961 0.027451
0.003922 0.101961 0.027451
0.003922 0.101961 0.027451
0.003922 0.101961 0.027451
0.000000 0.101961 0.027451
0.000000 0.105882 0.031373
0.000000 0.105882 0.031373
0.000000 0.105882 0.031373
0.000000 0.113725 0.027451
0.000000 0.117647 0.023529
0.003922 0.113725 0.023529
0.015686 0.117647 0.019608
0.047059 0.121569 0.007843
0.094118 0.129412 0.007843
0.133333 0.137255 0.011765
0.164706 0.129412 0.007843
0.196078 0.137255 0.007843
0.223529 0.133333 0.000000
0.254902 0.137255 0.003922
0.278431 0.137255 0.003922
0.305882 0.137255 0.003922
0.337255 0.129412 0.000000
0.364706 0.137255 0.000000
0.403922 0.137255 0.000000
0.431373 0.133333 0.000000
0.462745 0.133333 0.000000
0.498039 0.137255 0.000000
0.521569 0.137255 0.000000
0.545098 0.145098 0.003922
0.572549 0.149020 0.000000
0.596078 0.156863 0.007843
0.615686 0.164706 0.003922
0.635294 0.168627 0.003922
0.662745 0.176471 0.000000
0.686275 0.184314 0.000000
0.694118 0.192157 0.000000
0.709804 0.203922 0.000000
0.729412 0.215686 0.003922
0.737255 0.223529 0.003922
0.752941 0.235294 0.003922
0.764706 0.250980 0.000000
0.784314 0.262745 0.000000
0.800000 0.274510 0.000000
0.815686 0.294118 0.000000
0.827451 0.305882 0.000000
0.843137 0.317647 0.000000
0.854902 0.333333 0.000000
0.862745 0.356863 0.007843
0.878431 0.364706 0.003922
0.894118 0.388235 0.000000
0.905882 0.400000 0.000000
